X: 1
T:Trunkles
M:4/4
C:
S:Bacon (CJS (MSS))
N:Col. from Daniel Lock at Minster Lovell, 18.9.11
A:Field Town
O:English
R:Reel
%P:A/2.A(BC).A(BC).A(BD).A(BD)
P:A.A(BC).A(BC).A(BD).A(BD)
K:G
I:speed 500
P:A
|: z2  | d3 c  B2 d2  | c2 B2 A2 G2  | d3 c  B2 e2 | dcBA G2 :|\
P:B
|: Bc  | d2 d2 d2 e=f | g=fge d2 g2  | e=fed cdef  | d4   d2 :|\
P:C
g=f    | e2 c2 cde=f  | d2 B2 BcdB   | c2 A2 ABcA  | B2 G2 G2 \
AB     | cBAG  ^FGAB  | G4    G2    ||\
P:D
   g=f | e4    c4     | c2 d2 e2 =f2 | d4    B4    | B2 c2 d2 \
   B2  | c4    A4     | A2 B2 c2 A2  | B4    G4    | G4    A2 \
   B2  | cBAG ^FGAB   | G4    G2    ||
